X:2559
T:Cantar de Ronda (CT 201)
R:Ronda
C:Tradicional
S:Música Tradicional Asturiana, (C) Tello & Tito. Asturies, 2001.
S:http://pagina.de/MusTradAst <telloytito@asturies.org>
N:Canción de Ronda, dictada por el presbítero D. Jesús Fernández Villarof, de treinta y cuatro años, de Uviéu, quien dice la aprendió en Cabranes.
N:Expresa la letra la tierna despedida que hace un mozo quintado a su novia.
O:Cabranes
A:Asturies
Z:Cancioneru de Torner 201
M:6/8
L:1/8
Q:3/8=72
W:No llores, Concha del alma,
W:no llores ni tengas pena,
W:que en cumpliendo los tres años,
W:caso contigo, morena.
W:Concha del alma, no llores.
K:G
G
|c2 c dcB|c2 B-B2 B|B2 B cBA|B2 G-G2 G|
c2 c dcB|c2 B-B2 B|B2 B cBA|B2 G-GBA/G/|F2 c-c2 c|(B/4c/4B/4A/4) G2-G z||


